X:1022070
T:The Buttons
C:Doug Protsik
S:Old Grey Goose, $2Old-Time Country Song & Dance Band$0 (cassette), 1993.
N:From NH Country Dance (URL below), along with many New England, Canadian & Swedish
N:tunes, and resources for abc notation and New England traditional music and dance.
%
N: Note #1: To preserve formatting (font, spacing, etc.), use the
N: file header at the URL below; just follow accompanying instructions.
%
N: Note #2: This abc code is optimized for use with abcm2ps, which is used by
N: EasyABC and other abc apps. To use abc2svg for display or printing look to see if there
N: is a file optimized for abc2svg. If not you may need to adjust the spacing in places.
%
Z:abc-transcription Peter Yarensky. I rely heavily on careful listening to the
Z:named sources aided by software to hear details. While not perfect, known
Z:substantial differences from other written sources receive careful attention.
Z:abc-copyright Peter Yarensky. You may reproduce this tune freely but
Z:please include the entire abc file including all the notes.
%%writefields HQSD
F:Tunes Home Page - https://fiddle-tunes.nhcountrydance.com/
F:abc Header & its Usage - https://fiddle-tunes.nhcountrydance.com/header-page/
M:6/8
L:1/8
R:Jig
G:Jigs
N: Tune Tags ~ Jig, New England Repertoire, Doug Protsik
K:D
"A7" A3 |\
"D" {Bc}d2A d2f      | "D" a2f dcd    | "A7" efe gfe | "D" def "A7" ABc |
"D" d2A d2f          | "D" a2f dcd    | "A7" efe gfe |1 "D" .dz2       :|2 "D" .dz2 "A7" e3 ||
|: "D" {g}fAA {g}fAA | "D" {g}fAA Adf | "G" gBB gBB  | "G" gBB Bde      |
"D" {g}fAA {g}fAA    | "D" {g}fAA Ade |1 "D" fgf fed | "A7" eee ede    :|2 "D" fgf "A7" edc | "D" .dz2 |]
%%vskip 20

